img/plus.svg

<svg width="56" height="56" fill="none" xmlns="http://www.w3.org/2000/svg"><circle cx="28" cy="28" r="28" fill="#F67E7E"/><path fill-rule="evenodd" clip-rule="evenodd" d="M30 20h-4v6h-6v4h6v6h4v-6h6v-4h-6v-6z" fill="#012F34"/></svg>

<svg width="56" height="56" viewBox="0 0 56 56" fill="none" xmlns="http://www.w3.org/2000/svg">
<circle cx="28" cy="28" r="28" fill="#F67E7E"/>
<path fill-rule="evenodd" clip-rule="evenodd" d="M30 20H26V26H20V30H26V36H30V30H36V26H30V20Z" fill="#012F34"/>
</svg>
